X:3265
T:Lngdans frn Solleron
M:3/4
O:Sweden
R:Lngdans
Z:Richard Robinson 
%%TUNEURL: http://www.leeds.ac.uk/music/Info/RRTuneBk/gettune/00000bf6.html
%%ID:00000bf6
K:D min
A2 ^c2d2| e3g f2| d2 fe d^c| d3^c A2| A2 ^c2d2| e3g f2| d2 fe d^c| d6::
a2 g2 e2| g3e f2| f2 a2 g2| e2 ge f2| d2 f2 e2| e4 d2:|
AG [E2A2] [FA]G| A^c ec d2| F2 DE FG| F2 B2 AG| \
F2 [E2A2] [F2A2]| B2 A^c d2| F2 D2 B2| AG FE [D2A2]::
[A2f2] [A2e2] ^c2| A^c ec d2| DE F2 B2-|B2 A^c d2| B2A2 EG| [F4A4] [D2A2] :|
